public/assets/techs/jest.svg

<svg width="20" height="20" viewBox="0 0 20 20" fill="none" xmlns="http://www.w3.org/2000/svg">
<g clip-path="url(#clip0_310_71)">
<path d="M18.5419 9.85C18.5419 8.67188 17.7444 7.64 16.6019 7.34062L19.0919 0H6.75438L9.25188 7.36687C8.14438 7.68937 7.38251 8.70125 7.37938 9.85375C7.37938 10.7231 7.81251 11.4944 8.47376 11.9694C8.21063 12.3437 7.90688 12.6894 7.57188 13.0044C6.95688 13.5912 6.23376 14.0563 5.44626 14.3788C4.74938 13.9094 4.45063 13.0794 4.72063 12.3413C7.55251 11.4588 6.92751 7.28563 3.96563 7.27313C2.53313 7.27563 1.37126 8.435 1.37126 9.8675C1.37126 10.5744 1.65688 11.2219 2.12313 11.6869C2.08063 11.765 2.04126 11.85 1.99876 11.9344C1.61188 12.735 1.17188 13.6369 1.00313 14.6494C0.668131 16.6775 1.21813 18.305 2.54626 19.2262C3.26188 19.7312 4.12126 20.0044 5.00063 20.0012C6.52063 20.0012 8.06751 19.2363 9.56126 18.4938C10.6288 17.9694 11.7288 17.4194 12.8094 17.1531C13.21 17.0556 13.6269 16.9975 14.0663 16.9313C14.9581 16.8044 15.8794 16.6712 16.7063 16.1894C17.6631 15.6425 18.3306 14.6988 18.5256 13.6144C18.6688 12.7875 18.5256 11.9544 18.155 11.2219C18.4056 10.8212 18.5425 10.3563 18.5425 9.85125L18.5419 9.85ZM17.4125 9.85C17.4125 10.6544 16.7575 11.3081 15.9544 11.3081C14.5738 11.305 13.9688 9.56375 15.0519 8.70375L15.055 8.69812C15.1044 8.6625 15.1569 8.62625 15.205 8.59312C15.205 8.59312 15.215 8.59312 15.215 8.5875C15.2375 8.57437 15.26 8.55812 15.2831 8.545C15.29 8.545 15.2931 8.54187 15.2988 8.54187C15.3219 8.52875 15.3513 8.51937 15.3806 8.50625C15.41 8.49312 15.4388 8.48375 15.4625 8.47063C15.4681 8.47063 15.4719 8.4675 15.4781 8.4675C15.5013 8.46063 15.5275 8.44813 15.55 8.445C15.5531 8.445 15.5669 8.43813 15.5731 8.43813C15.6025 8.43125 15.625 8.425 15.6538 8.42125H15.6569L15.745 8.40187C15.7506 8.40187 15.7606 8.40188 15.7675 8.395C15.79 8.395 15.8131 8.38812 15.8394 8.38812H15.865C15.8944 8.38812 15.9231 8.385 15.9594 8.385H16.0344C16.0575 8.385 16.0769 8.385 16.0994 8.38812H16.1094C16.155 8.395 16.2038 8.40125 16.2494 8.415C16.9263 8.55812 17.4119 9.15688 17.4119 9.85H17.4125ZM8.36938 1.15938H17.4775L15.3875 7.32437C15.2994 7.34125 15.215 7.37 15.1269 7.39937L12.9269 2.91375L10.7194 7.37063C10.635 7.34375 10.54 7.325 10.4463 7.30875L8.36938 1.15938ZM12.51 9.34563C12.4025 8.81125 12.1294 8.32313 11.7281 7.95563L12.9263 5.5375L14.1369 8.0075C13.775 8.36563 13.515 8.825 13.4113 9.34563H12.51ZM9.60938 8.43063C9.63501 8.42375 9.66188 8.41812 9.69126 8.415H9.70688C9.73001 8.40812 9.75251 8.40812 9.77501 8.40187H9.79813C9.82063 8.40187 9.84063 8.395 9.86313 8.395H10.0875C10.1106 8.395 10.13 8.40187 10.1469 8.40187C10.1594 8.40187 10.1625 8.40188 10.1763 8.40875C10.1988 8.41563 10.2156 8.41563 10.2381 8.41875C10.245 8.41875 10.2513 8.41875 10.2638 8.42438L10.3419 8.44125H10.3488C10.3713 8.44812 10.3981 8.45437 10.4206 8.46687C10.4238 8.46687 10.4306 8.47 10.4431 8.47C10.46 8.47688 10.4825 8.48313 10.5025 8.4925C10.505 8.4925 10.5119 8.49937 10.5181 8.49937C10.5406 8.5125 10.5638 8.51937 10.5863 8.52875H10.5931C10.6188 8.53875 10.645 8.55187 10.6681 8.57125H10.675C10.6975 8.58125 10.72 8.59688 10.7431 8.61063C10.7488 8.61063 10.7488 8.6175 10.7556 8.6175C10.7788 8.6275 10.795 8.64687 10.8175 8.65687L10.8244 8.66375C10.8925 8.71563 10.9575 8.77375 11.0238 8.83313L11.0263 8.83625C11.2869 9.10937 11.4306 9.47063 11.4269 9.84438C11.365 11.7263 8.57188 11.7263 8.51001 9.84438C8.50688 9.1775 8.96251 8.59438 9.61001 8.43188L9.60938 8.43063ZM3.90938 8.38812C4.71376 8.38812 5.36751 9.04563 5.36751 9.85C5.36751 10.6544 4.71313 11.3081 3.90938 11.3081C3.10626 11.3081 2.45126 10.6538 2.45126 9.85C2.45126 9.04625 3.10626 8.38812 3.90938 8.38812V8.38812ZM17.3794 13.4119C17.2463 14.16 16.7844 14.8112 16.1238 15.1894C15.4919 15.5537 14.7138 15.6712 13.9006 15.7844C13.4413 15.8437 12.9825 15.9244 12.5331 16.0287C11.3288 16.3256 10.17 16.9013 9.04626 17.4581C7.61126 18.1713 6.25688 18.8412 5.00063 18.8412C4.35626 18.8444 3.72813 18.6462 3.20376 18.2687C1.93063 17.3894 1.99313 15.7394 2.14563 14.8344C2.28251 13.9875 2.67001 13.1969 3.04063 12.4388C3.06751 12.3931 3.08313 12.3506 3.10626 12.3056C3.23313 12.3506 3.36626 12.3863 3.50626 12.41C3.28438 13.6369 3.90938 14.9069 5.12688 15.5319L5.34501 15.645L5.58251 15.5606C6.59501 15.1987 7.53563 14.6162 8.36251 13.8356C8.82188 13.4087 9.22501 12.9275 9.56688 12.4031C9.70126 12.4256 9.83438 12.4325 9.96751 12.4325C11.1456 12.4294 12.1744 11.635 12.4744 10.4925H13.4475C13.7431 11.635 14.775 12.4325 15.9544 12.4325C16.4363 12.4325 16.8819 12.2994 17.2625 12.0744C17.4125 12.5075 17.4606 12.96 17.3794 13.4125V13.4119Z" fill="#EEEEEE"/>
</g>
<defs>
<clipPath id="clip0_310_71">
<rect width="20" height="20" fill="white"/>
</clipPath>
</defs>
</svg>

<svg xmlns="http://www.w3.org/2000/svg" width="20" height="20" fill="none" xmlns:v="https://vecta.io/nano"><g clip-path="url(#A)"><path d="M18.542 9.85c0-1.178-.797-2.21-1.94-2.509L19.092 0H6.754l2.497 7.367c-1.107.323-1.869 1.334-1.872 2.487 0 .869.433 1.641 1.094 2.116a6.76 6.76 0 0 1-.902 1.035c-.615.587-1.338 1.052-2.126 1.374-.697-.469-.996-1.299-.726-2.037 2.832-.883 2.207-5.056-.755-5.068-1.432.002-2.594 1.162-2.594 2.594 0 .707.286 1.354.752 1.819l-.124.248c-.387.801-.827 1.703-.996 2.715-.335 2.028.215 3.656 1.543 4.577.716.505 1.575.778 2.454.775 1.52 0 3.067-.765 4.561-1.508 1.068-.524 2.168-1.074 3.248-1.341.401-.098.817-.156 1.257-.222.892-.127 1.813-.26 2.64-.742a3.73 3.73 0 0 0 1.819-2.575 3.84 3.84 0 0 0-.371-2.392 2.56 2.56 0 0 0 .387-1.371l-.001-.001zm-1.129 0a1.46 1.46 0 0 1-1.458 1.458c-1.381-.003-1.986-1.744-.902-2.604l.003-.006.15-.105.078-.048.098-.039.082-.036.088-.026c.003 0 .017-.007.023-.007l.081-.017h.003l.088-.019c.006 0 .016 0 .023-.007.022 0 .046-.007.072-.007h.026l.094-.003h.075l.065.003h.01c.046.007.094.013.14.027.677.143 1.162.742 1.162 1.435h.001zM8.369 1.159h9.108l-2.09 6.165c-.088.017-.172.046-.261.075l-2.2-4.486-2.207 4.457c-.084-.027-.179-.046-.273-.062L8.369 1.159zm4.141 8.186c-.107-.534-.381-1.023-.782-1.39l1.198-2.418 1.211 2.47c-.362.358-.622.817-.726 1.338h-.901zm-2.901-.915a.53.53 0 0 1 .082-.016h.016c.023-.007.046-.007.068-.013h.023c.022 0 .043-.007.065-.007h.224c.023 0 .043.007.059.007s.016 0 .029.007c.023.007.039.007.062.01.007 0 .013 0 .026.006l.078.017h.007c.022.007.049.013.072.026.003 0 .01.003.022.003l.059.022c.038.02.061.027.084.036h.007c.026.01.052.023.075.042h.007c.022.01.045.026.068.039.036.017.052.036.074.046l.007.007c.068.052.133.11.199.169l.003.003a1.44 1.44 0 0 1 .401 1.008c-.062 1.882-2.855 1.882-2.917 0-.003-.667.453-1.25 1.1-1.412l-.001-.001zm-5.7-.042c.804 0 1.458.657 1.458 1.462a1.46 1.46 0 0 1-1.458 1.458A1.46 1.46 0 0 1 2.451 9.85c0-.804.655-1.462 1.458-1.462zm13.47 5.024a2.57 2.57 0 0 1-1.256 1.777c-.632.364-1.41.482-2.223.595l-1.368.244c-1.204.297-2.363.873-3.487 1.429-1.435.713-2.789 1.383-4.046 1.383-.644.003-1.272-.195-1.797-.573-1.273-.879-1.211-2.529-1.058-3.434.137-.847.524-1.638.895-2.396.027-.046.042-.088.066-.133.127.045.26.081.4.104-.222 1.227.403 2.497 1.621 3.122l.218.113.237-.084c1.013-.362 1.953-.944 2.78-1.725.459-.427.862-.908 1.204-1.432a2.41 2.41 0 0 0 .401.029 2.6 2.6 0 0 0 2.507-1.94h.973a2.59 2.59 0 0 0 2.507 1.94 2.56 2.56 0 0 0 1.308-.358c.15.433.198.886.117 1.338v-.001z" fill="#99425b"/></g><defs><clipPath id="A"><path fill="#fff" d="M0 0h20v20H0z"/></clipPath></defs></svg>
